packages/cfpb-design-system/src/components/cfpb-icons/icons/pop-up-round.svg

<svg viewBox="0 0 17 19" xmlns="http://www.w3.org/2000/svg"><path d="m16.417 9.583a7.917 7.917 0 1 1 -7.917-7.917 7.917 7.917 0 0 1 7.917 7.917m-3.1-3.937a.32.32 0 0 0 -.317-.316h-6.974a.32.32 0 0 0 -.316.317v1.778h-1.695a.32.32 0 0 0 -.317.316v5.725a.32.32 0 0 0 .317.317h6.973a.32.32 0 0 0 .317-.317v-1.778h1.695a.32.32 0 0 0 .317-.317zm-7.29 6.041h4.486v1.303h-6.023v-3.888h1.22v2.268a.32.32 0 0 0 .317.317m.474-4.68h6.024v3.888h-6.024z"/></svg>

<svg xmlns="http://www.w3.org/2000/svg" aria-hidden="true" class="cf-icon-svg cf-icon-svg--pop-up-round" viewBox="0 0 17 19"><path d="M16.417 9.583A7.917 7.917 0 1 1 8.5 1.666a7.917 7.917 0 0 1 7.917 7.917m-3.1-3.937A.32.32 0 0 0 13 5.33H6.026a.32.32 0 0 0-.316.317v1.778H4.015a.32.32 0 0 0-.317.316v5.725a.32.32 0 0 0 .317.317h6.973a.32.32 0 0 0 .317-.317v-1.778H13a.32.32 0 0 0 .317-.317zm-7.29 6.041h4.486v1.303H4.49V9.102h1.22v2.268a.32.32 0 0 0 .317.317m.474-4.68h6.024v3.888H6.501z"/></svg>
